X:1
T:James Gibb editions
T:Datemi pace - de Rore
T:#
%%score [ 1 2 3 4 ]
L:1/8
Q:1/4=140
M:3/2
K:Bb
V:1 treble nm="Soprano" snm="S"
V:2 treble nm="Alto" snm="A"
V:3 treble-8 nm="Tenor" snm="T"
V:4 bass nm="Bass" snm="B"
V:1
"^Cipriano de Rore\n(1515-65)""^Datemi pace""^Francesco Petrarca\n(1304-74)" A6 A2 B4 | G8 F4 | %2
w: Da- te- mi|pa- ce,|
 E6 E2 D4 | F8 A4 | c6 B2 A4 | G4 F8 |[M:3/2] =E4 z2 G2 G4 | G2 ^F4 G2 A4 ||[M:2/2] B2 G4 F2 | %9
w: da- te- mi|pa- ce,~o|du- ri miei|pen- sie-|ri: Non bas-|ta ben chA- mor,|For- tu- na~e|
 (E6 D2) | D4 z2 D2 ||[M:3/4] G4 G2 | ^F4 G2 |[M:3/4] A4 B2 | c4 B2 | _A4 G2- | G2 =E3 E | =E2 E4 | %18
w: Mor\- *|te Mi|fan- no|guer- ra~in|tor- no~en|su le|por- te,|* Sen- za|tro- var-|
 F2 G4 | B4 A2 | F2 G4 ||[M:2/2] A4 |[M:2/2] z4 G4 | =B6 c2 | c4 z4 | G4 =B4- | B2 c2 c4 | %27
w: mi den-|tro~al- tri|guer- rie-|ri?|E|tu, mio|cor,|e tu,|* mio cor,|
 z2 c2 B4- | B2 G2 F2 E2 | D6 D2 | F2 G2 B4- | B2 A2 G2 (c2- | cBBA c4) | z2 G2 c3 A | %34
w: an- chor|* se pur qual|e- ri?|Dis- le- al|* a me sol,||che fie- re|
 A2 B2 (3B2 B2 B2 |[M:2/2] G2 G2 c3 A | A2 B2 (3B2 B2 B2 | G2 G2 z2 F2 | B2 G3 G G2 | A4 B4 | %40
w: scor- te Vai ri- cet-|tan- do, fie- re|scor- te vai ri- cet-|tan- do e|sei fat- to con-|sor- te|
 (3G2 G2 c2 (3A2 A2 A2 | (3F2 F2 B2 (3:2:2G4 G2 | z8 | z4 z2 F2 | F4 G2 E2- | E2 F2 G2 B2 | %46
w: De miei ne- mi- ci sì|pron- ti~e leg- gie- ri?||In|te~i se- cre\-|* ti suoi mes-|
 (B3 A/G/ A2) B2 | G6 G2 | z2 F2 F2 G2 | E2 D2 D4 | C2 G2 G2 (B2- | BA A2) B4 | z4 c4- | %53
w: sag\- * * * gi~A|mo- re,|In te spie-|ga For- tu-|na~o- gni sua pom\-|* * * pa|E|
 c2 B4 A2- | A2 _A4 G2 | F2 E2 D2 C2 | c4 c2 z2 | G4 F2 =E2- | E!courtesy!=E A2 ^F4 | G2 =B4 c2 | %60
w: * mor- te|* la me-|mo- ria di quel|col- po|Che la- van\-|* zo di me|con- vien che|
 !courtesy!_B4 G4 | z4 A4 | B4 G4 | _A2 F2 E2 G2- | G2 E2 C2 F2- | F2 D2 z4 | G4 B4- | %67
w: rom- pa;|In|te~i va-|ghi pen- sier sar\-|* man der- ro\-|* re:|Per- ché|
 B2 A2 G2 F2 | E4 C2 D2 | =E2 (F3 !courtesy!=EFD | =E2 F4 !courtesy!=E2) | F4 z4 | G4 B4- | %73
w: * do- gni mio|mal te so-|lo~in col\- * * *||po,|per- ché|
 B2 A2 G2 F2 | E4 C2 D2 | =E2 (F3 EFD | =E2 F3 E E2) | F16 |] %78
w: * do- gni mio|mal te so-|lo~in col\- * * *||po.|
V:2
 F6 F2 F4 | E8 D4 | C6 C2 A,4 | D8 C4 | z2 F2 F6 =E2 | =E4 D2 (C3 =B,B,A,) |[M:3/2] C4 z2 D2 E4 | %7
w: Da- te- mi|pa- ce,|da- te- mi|pa- ce,|o du- ri|miei pen- sie\- * * *|ri: Non bas-|
 E2 D4 =E2 F4 ||[M:2/2] F2 B,4 B,2 | G,8 | ^F,4 z2 G,2 ||[M:3/4] E4 E2 | D4 =E2 |[M:3/4] F4 G2 | %14
w: ta ben chA- mor,|For- tu- na~e|Mor-|te Mi|fan- no|guer- ra~in|tor- no~en|
 _A4 G2 | F4 D2- | D2 G3 G | G2 C4 | D2 E4 | G4 F2 | D2 =E4 ||[M:2/2] F4 |[M:2/2] z8 | D4 G4 | %24
w: su le|por- te,|* Sen- za|tro- var-|mi den-|tro~al- tri|guer- rie-|ri?||E tu,|
 F4 E4 | z4 z2 G2 | G4 F4 | E2 C2 G4 | F2 E2 _A2 (G2- | G2 F2) F4 | z4 z2 B,2- | B,2 C2 E4- | %32
w: mio cor,|e|tu, mio|cor, an- chor|se pur qual e\-|* * ri?|Dis\-|* le- al|
 E2 D2 C2 (F2- | F=E ED/E/ F2) C2 | F3 D D2 E2 |[M:2/2] (3E2 E2 E2 C2 C2 | F3 D D2 E2 | %37
w: * a me sol,|* * * * * * che|fie- re scor- te|Vai ri- cet- tan- do,|fie- re scor- te|
 (3E2 E2 E2 C2 C2 | z2 B,2 E2 C2- | CC C2 D4 | E4 (3C2 C2 F2 | (3D3 D D2 (3B,2 B,2 E2 | %42
w: vai ri- cet- tan- do|e sei fat\-|* to con- sor-|te De miei ne-|mi- ci sì pron- ti~e leg-|
 (3:2:2C4 C2 z4 | z4 C4 | D4 E2 C2- | C2 D2 E2 G2- | G2 F4 F2 | (=E3 D E4) | F2 C2 D2 B,2 | %49
w: gie- ri?|In|te~i se- cre\-|* ti suoi mes\-|* sag- gi~A|mo\- * *|re, In te spie-|
 C2 D2 B,4 | A,2 B,2 B,2 F2- | F4 F4 | z4 _A4 | G4 G2 F2- | F2 F2 E4 | D2 G2 F2 A2- | A2 A2 z4 | %57
w: ga For- tu-|na~o- gni sua pom\-|* pa|E|mor- te la|* me- mo-|ria di quel col\-|* po|
 D4 D2 ^C2- | C!courtesy!^C C2 D4 | =E2 G4 F2 | (D3 C/B,/ C2) B,2 | z4 z2 F2 | D4 E4 | %63
w: Che la- van\-|* zo di me|con- vien che|rom\- * * * pa;|In|te~i va-|
 C2 D2 G,2 G,2- | G,2 G2 E2 F2- | F2 G2 z4 | =E4 F4- | F2 F,2 G,2 _A,2 | _A,4 z2 B,2 | %69
w: ghi pen- sier sar\-|* man der- ro\-|* re:|Per- ché|* do- gni mio|mal te|
 C2 D2 A,3 B, | C8 | A,4 z4 | =E4 F4- | F2 F,2 G,2 _A,2 | _A,4 z2 B,2 | C2 D2 (A,3 B, | C8) | %77
w: so- lo~in col\- *||po,|per- ché|* do- gni mio|mal te|so- lo~in col\- *||
 C16 |] %78
w: po.|
V:3
 c6 c2 d4 | B8 B4 | G6 G2 F4 | B8 A4- | A2 c4 d2 c4 | c4 (A3 G F4) | %6
w: Da- te- mi|pa- ce,|da- te- mi|pa- ce,~o|* du- ri miei|pen- sie\- * *|
[M:3/2][K:treble-8] G4 z2 B2 B4 | c2 A4 =B2 c4 ||[M:2/2] d2 e4 d2 | (c6 B2) | A4 z2 B2 || %11
w: ri: Non bas-|ta ben chA- mor,|For- tu- na~e|Mor\- *|te Mi|
[M:3/4] B4 c2 | A4 =B2 |[M:3/4][K:treble-8] c4 e2 | e4 e2 | c4 =B2- | B2 c3 c | c2 G3 x | A2 B4- | %19
w: fan- no|guer- ra~in|tor- no~en|su le|por- te,|* Sen- za|tro- var-|mi den\-|
 B2 d2 d2 | A2 c4 ||[M:2/2] c4 |[M:2/2][K:treble-8] z8 | z8 | z2 c2 c4 | e4 d4 | z4 z2 c2- | %27
w: * tro~al- tri|guer- rie-|ri?|||E tu,|mio cor,|an\-|
 c2 e4 d2- | d2 c4 B2 | A3 A B4 | d2 e4 e2 | e2 f2 z4 | z8 | z4 F4 | d3 B B2 G2 | %35
w: * chor se|* pur qual|e- ri? Dis-|le- al a|me sol,||che|fie- re scor- te|
[M:2/2][K:treble-8] (3c2 c2 c2 F2 F2 | d3 B B2 G2 | (3c2 c2 c2 F2 F2 | z8 | F4 B2 G2- | GG G2 A4 | %41
w: Vai ri- cet- tan- do,|fie- re scor- te|vai ri- cet- tan- do||e sei fat\-|* to con- sor-|
 B2 z2 (3G2 G2 c2 | (3A3 A A2 (3F2 F2 B2 | (3:2:2G4 G2 z2 A2 | B4 G2 _A2- | A2 F2 E4 | e2 d4 B2 | %47
w: te De miei ne-|mi- ci sì pron- ti~e leg-|gie- ri. In|te~i se- cre\-|* ti suoi|mes- sag- gi~A|
 (c3 =B c4) | c2 A2 B2 G2- | G2 G2 F2 f2- | f2 d2 e2 d2 | c4 d4 | z2 f4 e2- | e2 e2 d4 | d2 c4 G2 | %55
w: mo\- * *|re, In te spie\-|* ga For- tu\-|* na~o- gni sua|pom- pa|E mor\-|* te la|me- mo- ria|
 B2 c2 f4 | f4 z4 | B4 A2 A2- | AA =e2 A4 | c2 d4 c2 | f4 e4 | z2 c4 d2- | d2 B4 c2 | c2 B4 e2- | %64
w: di quel col-|po|Che la- van\-|* zo di me|con- vien che|rom- pa;|In te~i|* va- ghi|pen- sier sar\-|
 e2 c2 G2 A2- | A2 B2 z4 | G4 d4 | d4 B2 c2 | c4 z4 | z4 z2 F2 | G2 A2 G4 | F4 z4 | c4 d4 | %73
w: * man der- ro\-|* re:|Per- ché|do- gni mio|mal|te|so- lo~in col-|po,|per- ché|
 d4 B2 c2 | c4 z4 | z4 z2 F2 | G2 A2 G4 | A16 |] %78
w: do- gni mio|mal|te|so- lo~in col-|po.|
V:4
 F,6 F,2 D,4 | E,8 B,,4 | C,6 C,2 D,4 | B,,8 F,4- | F,2 A,,4 B,,2 C,4 | C,4 (F,3 =E, D,4) | %6
w: Da- te- mi|pa- ce,|da- te- mi|pa- ce,~o|* du- ri miei|pen- sie\- * *|
[M:3/2] C,4 z2 G,2 E,4 | C,2 D,4 G,2 F,4 ||[M:2/2] B,,2 E,4 B,,2 | (C,6 D,2) | D,4 z2 G,2 || %11
w: ri: Non bas-|ta ben chA- mor,|For- tu- na~e|Mor\- *|te Mi|
[M:3/4] E,4 C,2 | D,4 G,2 |[M:3/4] F,4 E,2 | _A,4 E,2 | F,4 G,2- | G,2 C,3 C, | C,2 C,4 | %18
w: fan- no|guer- ra~in|tor- no~en|su le|por- te,|* Sen- za|tro- var-|
 F,2 E,4- | E,2 B,,2 D,2 | D,2 C,4 ||[M:2/2] F,4 |[M:2/2] z8 | G,4 =E,4 | F,4 _A,4 | z4 G,4 | %26
w: mi den\-|* tro~al- tri|guer- rie-|ri?||E tu,|mio cor,|e|
 =E,4 F,4 | _A,4 G,2 B,2- | B,2 E,2 F,2 G,2 | D,4 D,2 B,,2- | B,,2 E,2 G,4 | G,2 F,2 C4 | z8 | %33
w: tu, mio|cor, an- chor|* se pur qual|e- ri? Dis\-|* le- al|a me sol,||
 C,4 A,3 F, | F,2 D,2 (3G,2 G,2 G,2 |[M:2/2] C,2 C,2 A,3 F, | F,2 D,2 (3G,2 G,2 G,2 | C,2 C,2 z4 | %38
w: che fie- re|scor- te Vai ri- cet-|tan- do, fie- re|scor- te vai ri- cet-|tan- do|
 z8 | z8 | C,4 F,2 D,2- | D,D, D,2 E,4 | F,4 (3D,2 D,2 G,2 | (3E,3 E, E,2 (3C,2 C,2 F,2 | %44
w: ||e sei fat\-|* to con- sor-|te De miei ne-|mi- ci sì pron- ti~e leg-|
 (3:2:2B,,4 B,,2 z4 | z8 | z8 | z4 C,4 | F,4 D,2 E,2 | C,2 B,,3 C,D,E, | F,2 G,2 E,2 B,,2 | %51
w: gie- ri.|||In|te spie- ga|For- tu\- * * *|* na~o- gni sua|
 F,4 B,4 | z4 _A,4 | E,4 G,2 D,2- | D,2 F,2 C,4 | D,2 E,2 B,,2 F,2- | F,2 F,2 z4 | G,4 D,2 A,,2- | %58
w: pom- pa|E|mor- te la|* me- mo-|ria di quel col\-|* po|Che la- van\-|
 A,,A,, A,,2 D,4 | C,2 G,4 A,2 | B,4 E,4 | z4 F,4 | G,4 E,4 | F,2 B,,2 E,2 C,2- | %64
w: * zo di me|con- vien che|rom- pa;|In|te~i va-|ghi pen- sier sar\-|
 C,2 C,2 E,2 D,2- | D,2 G,2 z4 | C,4 B,,4 | D,4 E,2 _A,,2 | _A,,4 z4 | z2 B,,2 C,2 D,2 | C,8 | %71
w: * man der- ro\-|* re:|Per- ché|do- gni mio|mal|te so- lo~in|col-|
 C4 z4 | C,4 B,,4 | D,4 E,2 _A,,2 | _A,,4 z4 | z2 B,,2 C,2 D,2 | C,8 | F,16 |] %78
w: po,|per- ché|do- gni mio|mal|te so- lo~in|col-|po.|

